icons/remix/remix-original.svg

<?xml version="1.0" encoding="UTF-8" standalone="no"?><svg width="128" height="128" viewBox="0 0 128 128" fill="none" version="1.1" id="svg2" sodipodi:docname="remix-original.svg" inkscape:version="1.3.2 (091e20e, 2023-11-25, custom)" xmlns:inkscape="http://www.inkscape.org/namespaces/inkscape" xmlns:sodipodi="http://sodipodi.sourceforge.net/DTD/sodipodi-0.dtd" xmlns="http://www.w3.org/2000/svg" xmlns:svg="http://www.w3.org/2000/svg"> <defs id="defs2" /><sodipodi:namedview id="namedview2" pagecolor="#505050" bordercolor="#eeeeee" borderopacity="1" inkscape:showpageshadow="0" inkscape:pageopacity="0" inkscape:pagecheckerboard="0" inkscape:deskcolor="#505050" inkscape:zoom="3.885" inkscape:cx="97.039897" inkscape:cy="75.289575" inkscape:window-width="1920" inkscape:window-height="991" inkscape:window-x="-9" inkscape:window-y="-9" inkscape:window-maximized="1" inkscape:current-layer="svg2" /><path id="p1" style="stroke-width:0.270613;fill:#121212;fill-opacity:1" d="M 8.3886719 0 L 8.3886719 26.089844 L 63.833984 26.089844 C 78.490376 26.089844 85.820312 32.379869 85.820312 42.759766 C 85.820312 54.564439 78.490376 59.023438 63.833984 59.023438 L 8.3886719 59.023438 L 8.3886719 85.685547 L 51.925781 85.685547 L 62.207031 85.685547 C 73.810099 85.685547 80.118948 88.941477 81.136719 103.5957 C 81.906882 113.60513 81.8113 118.56141 81.71875 123.31445 C 81.68899 124.84341 81.658203 126.3517 81.658203 128 L 115.87695 128 C 115.87695 120.43259 115.87774 113.49993 114.72656 98.710938 C 113.30151 83.85348 105.5656 76.323517 92.333984 73.677734 C 108.00843 71.642455 119.61133 59.429592 119.61133 40.705078 C 119.61133 15.671225 103.12206 0 69.941406 0 L 8.3886719 0 z M 8.3886719 108.125 L 8.3886719 128 L 51.923828 128 L 51.923828 115.2793 C 51.923828 112.60618 50.611685 108.125 44.568359 108.125 L 8.3886719 108.125 z " /> </svg>

<svg width="128" height="128" viewBox="0 0 128 128" fill="none" xmlns="http://www.w3.org/2000/svg"><path style="stroke-width:.270613;fill:#121212;fill-opacity:1" d="M8.389 0v26.09h55.445c14.656 0 21.986 6.29 21.986 16.67 0 11.804-7.33 16.263-21.986 16.263H8.389v26.663h53.818c11.603 0 17.912 3.255 18.93 17.91.77 10.01.674 14.965.582 19.718-.03 1.53-.06 3.038-.06 4.686h34.218c0-7.567 0-14.5-1.15-29.29-1.425-14.857-9.161-22.386-22.393-25.032 15.674-2.036 27.277-14.248 27.277-32.973C119.611 15.671 103.122 0 69.941 0zm0 108.125V128h43.535v-12.72c0-2.674-1.312-7.155-7.356-7.155z"/></svg>
